resources/icons/20px/fuel.svg

<svg width="20" height="20" viewBox="0 0 20 20" fill="none" xmlns="http://www.w3.org/2000/svg">
<path fill-rule="evenodd" clip-rule="evenodd" d="M2.19637 2H0V4H2C2.31735 4 2.61886 4.13867 2.8254 4.37963L6.31818 8.45455L4.4453 9.70313C4.1671 9.8886 4 10.2008 4 10.5352V18C4 18.5 4.5 19 5 19H19C19.5 19 20 18.5 20 18V7.1C20 7.06629 19.9986 7.03294 19.9959 7H20V3C20 3 20 2 19 2H11C10.5 2 10 2.5 10 3V6L8.11961 7.25359L4.46337 3.03513C3.89355 2.37769 3.06638 2 2.19637 2ZM18 4V6H12V4H18Z" fill="black"/>
</svg>

<svg xmlns="http://www.w3.org/2000/svg" viewBox="0 0 20 20">
  <path d="M2.196 2H0v2h2c.317 0 .619.139.825.38l3.493 4.075-1.873 1.248a1 1 0 0 0-.445.832V18c0 .5.5 1 1 1h14c.5 0 1-.5 1-1V7.1q0-.05-.004-.1H20V3s0-1-1-1h-8c-.5 0-1 .5-1 1v3L8.12 7.254 4.463 3.035A3 3 0 0 0 2.196 2M18 4v2h-6V4z"/>
</svg>
